gama.ui.shared/icons_svg/dark/experiment/experiment.pause.svg

<svg height="25" viewBox="-742.774 -3200.298 25 25" width="25" xmlns="http://www.w3.org/2000/svg"><g fill="none"><circle cx="-730.274" cy="-3187.798" fill="#666" r="12"/><circle cx="-730.274" cy="-3187.798" r="12" stroke="#fff" stroke-linecap="round" stroke-linejoin="round" stroke-width=".25"/><path d="m-733.7741-3193.1315c-.6456 0-1.1667.4467-1.1667 1v8.6667c0 .5533.5211 1 1.1667 1h.7778c.6455 0 1.1666-.4467 1.1666-1v-8.6667c0-.5533-.5211-1-1.1666-1zm0-.6665h.7778c1.0733 0 1.9444.7465 1.9444 1.6665v8.6667c0 .92-.8711 1.6668-1.9444 1.6668h-.7778c-1.07335 0-1.9445-.7468-1.9445-1.6668v-8.6667c0-.92.87115-1.6665 1.9445-1.6665zm6.2222 0h.7778c1.0733 0 1.9444.7465 1.9444 1.6665v8.6667c0 .92-.8711 1.6668-1.9444 1.6668h-.7778c-1.0733 0-1.9444-.7468-1.9444-1.6668v-8.6667c0-.92.8711-1.6665 1.9444-1.6665zm0 .6665c-.64555 0-1.1667.4467-1.1667 1v8.6667c0 .5533.52115 1 1.1667 1h.7778c.6455 0 1.16665-.4467 1.16665-1v-8.6667c0-.5533-.52115-1-1.16665-1z" fill="#f9b841"/></g></svg>

<?xml version="1.0" encoding="UTF-8" standalone="no"?>
<!DOCTYPE svg PUBLIC "-//W3C//DTD SVG 1.1//EN" "http://www.w3.org/Graphics/SVG/1.1/DTD/svg11.dtd">
<svg version="1.1" xmlns:xl="http://www.w3.org/1999/xlink" xmlns="http://www.w3.org/2000/svg" xmlns:dc="http://purl.org/dc/elements/1.1/" viewBox="-742.7741 -3200.298 24.999996 25" width="24.999996" height="25">
  <defs/>
  <g id="SOURCES" fill="none" stroke-dasharray="none" fill-opacity="1" stroke="none" stroke-opacity="1">
    <title>SOURCES</title>
    <g id="SOURCES_Dark">
      <title>Dark</title>
      <g id="Graphic_11380">
        <circle cx="-730.2741" cy="-3187.798" r="12.000018268838" fill="#666"/>
        <circle cx="-730.2741" cy="-3187.798" r="12.000018268838" stroke="white" stroke-linecap="round" stroke-linejoin="round" stroke-width=".25"/>
      </g>
      <g id="Graphic_11379">
        <path d="M -733.7741 -3193.1315 C -734.4197 -3193.1315 -734.9408 -3192.6848 -734.9408 -3192.1315 L -734.9408 -3183.4648 C -734.9408 -3182.9115 -734.4197 -3182.4648 -733.7741 -3182.4648 L -732.9963 -3182.4648 C -732.3508 -3182.4648 -731.8297 -3182.9115 -731.8297 -3183.4648 L -731.8297 -3192.1315 C -731.8297 -3192.6848 -732.3508 -3193.1315 -732.9963 -3193.1315 Z M -733.7741 -3193.798 L -732.9963 -3193.798 C -731.923 -3193.798 -731.0519 -3193.0515 -731.0519 -3192.1315 L -731.0519 -3183.4648 C -731.0519 -3182.5448 -731.923 -3181.798 -732.9963 -3181.798 L -733.7741 -3181.798 C -734.84745 -3181.798 -735.7186 -3182.5448 -735.7186 -3183.4648 L -735.7186 -3192.1315 C -735.7186 -3193.0515 -734.84745 -3193.798 -733.7741 -3193.798 Z M -727.5519 -3193.798 L -726.7741 -3193.798 C -725.7008 -3193.798 -724.8297 -3193.0515 -724.8297 -3192.1315 L -724.8297 -3183.4648 C -724.8297 -3182.5448 -725.7008 -3181.798 -726.7741 -3181.798 L -727.5519 -3181.798 C -728.6252 -3181.798 -729.4963 -3182.5448 -729.4963 -3183.4648 L -729.4963 -3192.1315 C -729.4963 -3193.0515 -728.6252 -3193.798 -727.5519 -3193.798 Z M -727.5519 -3193.1315 C -728.19745 -3193.1315 -728.7186 -3192.6848 -728.7186 -3192.1315 L -728.7186 -3183.4648 C -728.7186 -3182.9115 -728.19745 -3182.4648 -727.5519 -3182.4648 L -726.7741 -3182.4648 C -726.1286 -3182.4648 -725.60745 -3182.9115 -725.60745 -3183.4648 L -725.60745 -3192.1315 C -725.60745 -3192.6848 -726.1286 -3193.1315 -726.7741 -3193.1315 Z" fill="#f9b841"/>
      </g>
    </g>
  </g>
</svg>
